X: 1
T: The Muckin' O' Geordie's Byre
R: jig
M: 6/8
L: 1/8
K: Dmaj
|:ABA AFA|d2e f2a|g2e f2d|e2d Bcd|
ABA AFA|d2e f2g|afd efe|d3 dcB:|
|:g2g gab|f2f fga|efe ede|fed Bcd|
ABA AFA|d2e f2g|afd efe|ded d3:||


Tune 1110	Setting 14360

